X: 176
T: Salve regina II
N: Derived from Rue2022-Salve_regina_II.krn
C: Pierre de la Rue
%%abc-version 2.0
%%abcx-abcm2ps-target-version 5.9.1 (29 Sep 2008)
%%abc-creator hum2abc beta
%%abcx-conversion-date 2019/02/17 08:01:17
%%abc-edited-by Jesse Rodin
%%abc-edited-by Chris Gage 02-12-2013
%%abcx-initial-encoding-date 2013/02/14/
%%humdrum-veritas 1881886048
%%humdrum-veritas-data 3618179611
%%linebreak <none>
%%barnumbers 0
L: 1/4
M: 2/1
Q: 1/2=120
%%staves [1 2 3 4]
V: 1 clef=treble
V: 2 clef=treble-8
V: 3 clef=treble-8
V: 4 clef=bass
K: C
[V:1] A3GFEF2- | 
[V:2] z8 | 
[V:3] A8- | 
[V:4] z8 | 
[V:1] F2EDC4 | 
[V:2] z8 | 
[V:3] A8 | 
[V:4] z8 | 
[V:1] z8 | 
[V:2] z8 | 
[V:3] G8- | 
[V:4] G,3F,E,D,E,2- | 
[V:1] z8 | 
[V:2] z8 | 
[V:3] G8 | 
[V:4] E,2D,C,B,,4 | 
[V:1] A3GFEF2- | 
[V:2] A3Bc2d2 | 
[V:3] A8- | 
[V:4] A,,8- | 
[V:1] F2EDE4 | 
[V:2] A2d4^c2 | 
[V:3] A8 | 
[V:4] A,,8 | 
[V:1] D8- | 
[V:2] d4z4 | 
[V:3] D8 | 
[V:4] z4A,4 | 
[V:1] D8 | 
[V:2] z8 | 
[V:3] z4A4 | 
[V:4] G,4F,4 | 
[V:1] z8 | 
[V:2] z8 | 
[V:3] G4F4 | 
[V:4] E,4z2D,2 | 
[V:1] z8 | 
[V:2] z4e4 | 
[V:3] E3FG2A2- | 
[V:4] C,2A,,2G,,2C,2 | 
[V:1] z8 | 
[V:2] d4c4 | 
[V:3] A2G4^F2 | 
[V:4] D,2B,,2A,,4 | 
[V:1] z8 | 
[V:2] B3cd2d2- | 
[V:3] G3ABGB2- | 
[V:4] G,,8 | 
[V:1] z4C4 | 
[V:2] dcBAG3F | 
[V:3] BAGFE4 | 
[V:4] z8 | 
[V:1] D4F4 | 
[V:2] A4z2A2 | 
[V:3] D8 | 
[V:4] z8 | 
[V:1] G4B4 | 
[V:2] B2c2d4 | 
[V:3] z8 | 
[V:4] z4G,,4 | 
[V:1] A2c3BAG | 
[V:2] c4e4 | 
[V:3] z8 | 
[V:4] A,,4C,4 | 
[V:1] F8- | 
[V:2] d3c/B/A2d2- | 
[V:3] z8 | 
[V:4] D,8 | 
[V:1] F4F4 | 
[V:2] d2cBA4 | 
[V:3] z8 | 
[V:4] D,8 | 
[V:1] G3F/E/D2G2- | 
[V:2] G8- | 
[V:3] z8 | 
[V:4] E,3D,/C,/B,,2E,2- | 
[V:1] G2FED4 | 
[V:2] G8 | 
[V:3] z8 | 
[V:4] E,2D,C,B,,4 | 
[V:1] C4C3B, | 
[V:2] A3Bc2c2- | 
[V:3] A3G/F/E2A2- | 
[V:4] A,,8- | 
[V:1] C2D4^C2 | 
[V:2] c2B2A4 | 
[V:3] A2GFE4 | 
[V:4] A,,8 | 
[V:1] D8 | 
[V:2] F3GA4 | 
[V:3] D8 | 
[V:4] z8 | 
[V:1] z8 | 
[V:2] z8 | 
[V:3] A8- | 
[V:4] A,,3B,,C,2D,2- | 
[V:1] z8 | 
[V:2] z8 | 
[V:3] A8 | 
[V:4] D,E,F,G,A,2D,2 | 
[V:1] B,3CD2E2- | 
[V:2] z8 | 
[V:3] G8- | 
[V:4] z8 | 
[V:1] EFGAB2E2 | 
[V:2] z8 | 
[V:3] G8 | 
[V:4] z8 | 
[V:1] z2c4A2- | 
[V:2] e4e2f2- | 
[V:3] A8- | 
[V:4] A,,3B,,C,2D,2- | 
[V:1] A2GFE2A2- | 
[V:2] f2edc2f2- | 
[V:3] A8 | 
[V:4] D,E,F,G,A,2D,2 | 
[V:1] A2F4ED | 
[V:2] f2d2d4 | 
[V:3] D8 | 
[V:4] A,8 | 
[V:1] C3DE2F2- | 
[V:2] e3dc2d2 | 
[V:3] z8 | 
[V:4] A,,4z4 | 
[V:1] FGABc4 | 
[V:2] A2c3def | 
[V:3] A8 | 
[V:4] z8 | 
[V:1] B8 | 
[V:2] g3f/e/d2g2- | 
[V:3] G8- | 
[V:4] z8 | 
[V:1] z2B4G2 | 
[V:2] g2e4e2 | 
[V:3] G8 | 
[V:4] E,8 | 
[V:1] B2A4G2- | 
[V:2] f2d2e2c2 | 
[V:3] F4E4 | 
[V:4] D,4C,4 | 
[V:1] G2F4ED | 
[V:2] d8 | 
[V:3] D6E2 | 
[V:4] _B,,8 | 
[V:1] C4z2E2 | 
[V:2] z4e4 | 
[V:3] F2E4A2- | 
[V:4] A,,4C,4 | 
[V:1] F2G4E2 | 
[V:2] d2c2e4 | 
[V:3] A2G4A2- | 
[V:4] D,2E,2C,4 | 
[V:1] F2G2E4 | 
[V:2] d2c2B2e2 | 
[V:3] A2G4A2- | 
[V:4] D,2E,4C,2 | 
[V:1] F2G2E2F2- | 
[V:2] d2c3BA2- | 
[V:3] A2G2A4 | 
[V:4] D,2E,2A,,4 | 
[V:1] FED4^C2 | 
[V:2] A2G2A4 | 
[V:3] D4E4 | 
[V:4] B,,4A,,4 | 
[V:1] D4z2A,2 | 
[V:2] z8 | 
[V:3] D8 | 
[V:4] z8 | 
[V:1] B,2C2D2F2 | 
[V:2] z8 | 
[V:3] z4F4 | 
[V:4] z8 | 
[V:1] E2D3CB,A, | 
[V:2] z8 | 
[V:3] G4F4 | 
[V:4] z8 | 
[V:1] B,4A,4 | 
[V:2] z8 | 
[V:3] G4A4 | 
[V:4] z4z2A,,2 | 
[V:1] z8 | 
[V:2] z2A2B2c2 | 
[V:3] z8 | 
[V:4] B,,2C,2D,2E,2 | 
[V:1] F4G4 | 
[V:2] d2f2e3c | 
[V:3] z8 | 
[V:4] F,2E,D,C,2G,2 | 
[V:1] F4G4 | 
[V:2] dcBAB4 | 
[V:3] z8 | 
[V:4] D,2F,2E,4 | 
[V:1] A8- | 
[V:2] A4z4 | 
[V:3] z4A4- | 
[V:4] A,,4F,4- | 
[V:1] A8- | 
[V:2] c4d4 | 
[V:3] A4A4 | 
[V:4] F,4F,4 | 
[V:1] A8 | 
[V:2] c4d4 | 
[V:3] A8 | 
[V:4] F,8 | 
[V:1] z4G4 | 
[V:2] e8 | 
[V:3] B4B2c2- | 
[V:4] E,6C,2 | 
[V:1] G6F2 | 
[V:2] e4e2d2- | 
[V:3] c2BAG4 | 
[V:4] C,4z4 | 
[V:1] E4D4 | 
[V:2] d2c3AB2 | 
[V:3] z8 | 
[V:4] z2E,2F,2G,2 | 
[V:1] G6A2- | 
[V:2] E4z4 | 
[V:3] c4c4- | 
[V:4] C,4z4 | 
[V:1] A2G4^F2 | 
[V:2] z8 | 
[V:3] c2B2A4 | 
[V:4] z8 | 
[V:1] G4z4 | 
[V:2] e4e4- | 
[V:3] G4G2A2- | 
[V:4] C,4C,4- | 
[V:1] z8 | 
[V:2] e2d2c4 | 
[V:3] A2G4^F2 | 
[V:4] C,2B,,2A,,4 | 
[V:1] z4G4 | 
[V:2] B3cdBe2- | 
[V:3] G8 | 
[V:4] G,,8 | 
[V:1] F4E4 | 
[V:2] e2d4c2 | 
[V:3] z8 | 
[V:4] z8 | 
[V:1] D2B,CDB,E2- | 
[V:2] d3cBAB2- | 
[V:3] z4G4 | 
[V:4] z8 | 
[V:1] E2D4^C2 | 
[V:2] B2A4G2 | 
[V:3] F4E4 | 
[V:4] z8 | 
[V:1] D4z2A2- | 
[V:2] A8 | 
[V:3] D2F4F2 | 
[V:4] z4D,4 | 
[V:1] ABc2d2B2 | 
[V:2] z8 | 
[V:3] E2A4G2 | 
[V:4] C,4B,,4 | 
[V:1] c2A2B3G | 
[V:2] z8 | 
[V:3] A4G2E2 | 
[V:4] A,,4z4 | 
[V:1] A2F2G2E2- | 
[V:2] z8 | 
[V:3] F2D2E2G2 | 
[V:4] z8 | 
[V:1] E2D2E4 | 
[V:2] z4z2B2 | 
[V:3] F4E4 | 
[V:4] z8 | 
[V:1] z8 | 
[V:2] c2e3Acd | 
[V:3] z2E2F2A2- | 
[V:4] A,,8 | 
[V:1] z4z2E2 | 
[V:2] e2d4c2 | 
[V:3] ADF2E4 | 
[V:4] A,,8 | 
[V:1] F2A3DF2 | 
[V:2] d2f3ed2- | 
[V:3] D8 | 
[V:4] z8 | 
[V:1] E4z2D2 | 
[V:2] d2^c2d4 | 
[V:3] A6B2 | 
[V:4] z8 | 
[V:1] E3FG2A2- | 
[V:2] z8 | 
[V:3] c2e3Ac2 | 
[V:4] z8 | 
[V:1] A2^G2A4- | 
[V:2] z4e4- | 
[V:3] B4A4 | 
[V:4] z8 | 
[V:1] A4c4- | 
[V:2] e4e4 | 
[V:3] c8 | 
[V:4] A,,8 | 
[V:1] c4A4 | 
[V:2] f4e4- | 
[V:3] A4c4- | 
[V:4] A,,8 | 
[V:1] G4A4- | 
[V:2] e2d2c2B2 | 
[V:3] c2B2A2G2 | 
[V:4] z8 | 
[V:1] A2G2F4 | 
[V:2] A2e4d2 | 
[V:3] F2E2A4- | 
[V:4] A,,8 | 
[V:1] E4z2E2- | 
[V:2] c2B2A4 | 
[V:3] A2GFE4 | 
[V:4] A,,8 | 
[V:1] EFG4B2 | 
[V:2] G2c2B2e2- | 
[V:3] z2E2G4 | 
[V:4] E,8 | 
[V:1] A4G4 | 
[V:2] e2d2e4 | 
[V:3] A4B2c2- | 
[V:4] F,4E,4 | 
[V:1] z4z2G2 | 
[V:2] A4z2e2- | 
[V:3] c2A2B2c2- | 
[V:4] F,4E,4 | 
[V:1] A4G4 | 
[V:2] e2d2e4 | 
[V:3] c2A2B2c2- | 
[V:4] F,4E,4 | 
[V:1] z4z2G2- | 
[V:2] c2d2B4- | 
[V:3] c2BAG4 | 
[V:4] F,4G,4 | 
[V:1] GAB2c2B2- | 
[V:2] B4z2e2 | 
[V:3] z4G3A | 
[V:4] E,8 | 
[V:1] B2G2A2B2- | 
[V:2] d2e4d2 | 
[V:3] B2c4B2 | 
[V:4] z2E,2F,2G,2 | 
[V:1] B2E2F2G2- | 
[V:2] e4d2B2 | 
[V:3] G2A4G2 | 
[V:4] E,2C,2D,2E,2 | 
[V:1] G2C2D2E2- | 
[V:2] c4B2G2 | 
[V:3] E2F4E2 | 
[V:4] C,2A,,2B,,2C,2 | 
[V:1] E2A,2B,2C2 | 
[V:2] A4G2E2 | 
[V:3] C2D4C2 | 
[V:4] A,,2F,,2G,,2A,,2 | 
[V:1] D2F4E2- | 
[V:2] z2c4Bc | 
[V:3] F3GA2G2 | 
[V:4] _B,,2A,,2F,,2G,,2 | 
[V:1] E2D4^C2 | 
[V:2] d2B2A4 | 
[V:3] F2G2E4 | 
[V:4] _B,,2G,,2A,,4 | 
[V:1] D8 ||  
[V:2] A8 ||  
[V:3] D8 ||  
[V:4] D,8 ||  
[V:1]  [K:C] [K:clef=treble][M:2/1]z8 | 
[V:2]  [K:C] [K:clef=treble-8][M:2/1]z8 | 
[V:3]  [K:C] [K:clef=treble-8][M:2/1]F8- | 
[V:4]  [K:C] [K:clef=bass][M:2/1]z4F,3G, | 
[V:1] z8 | 
[V:2] z8 | 
[V:3] F8- | 
[V:4] A,2A,3G,F,E, | 
[V:1] z8 | 
[V:2] z8 | 
[V:3] F8- | 
[V:4] D,3E,F,2F,2- | 
[V:1] z8 | 
[V:2] z8 | 
[V:3] F8 | 
[V:4] F,E,D,C,_B,,3C, | 
[V:1] z4A4 | 
[V:2] z8 | 
[V:3] F8 | 
[V:4] D,2D,3C,_B,,A,, | 
[V:1] B3cd2d2- | 
[V:2] z8 | 
[V:3] G8- | 
[V:4] G,,8- | 
[V:1] dcBAG3A | 
[V:2] z8 | 
[V:3] G8- | 
[V:4] G,,8- | 
[V:1] B2B3AGF | 
[V:2] z8 | 
[V:3] G8- | 
[V:4] G,,8 | 
[V:1] E3FG2G2- | 
[V:2] z8 | 
[V:3] G8 | 
[V:4] z8 | 
[V:1] GFEDC3D | 
[V:2] z8 | 
[V:3] G8- | 
[V:4] C,8- | 
[V:1] E2E3DCB, | 
[V:2] z8 | 
[V:3] G8 | 
[V:4] C,8 | 
[V:1] A,2D2A,2D2- | 
[V:2] z8 | 
[V:3] F8- | 
[V:4] D,8- | 
[V:1] D2CB,A,3B, | 
[V:2] z8 | 
[V:3] F8 | 
[V:4] D,8 | 
[V:1] C2D2E2F2 | 
[V:2] z8 | 
[V:3] E8- | 
[V:4] A,,3B,,C,2D,2 | 
[V:1] G4E4 | 
[V:2] z8 | 
[V:3] E8 | 
[V:4] E,2F,2G,4 | 
[V:1] z2G2G3F | 
[V:2] z8 | 
[V:3] G8- | 
[V:4] E,8- | 
[V:1] E2D2C2B,2 | 
[V:2] z8 | 
[V:3] G8 | 
[V:4] E,8 | 
[V:1] A,2c2c3B | 
[V:2] z8 | 
[V:3] A8- | 
[V:4] A,,8- | 
[V:1] A2G2F2E2 | 
[V:2] z8 | 
[V:3] A8 | 
[V:4] A,,8 | 
[V:1] G8- | 
[V:2] z8 | 
[V:3] z8 | 
[V:4] z2G,2G,3F, | 
[V:1] G8 | 
[V:2] z8 | 
[V:3] z8 | 
[V:4] E,2D,2C,2B,,2 | 
[V:1] A8- | 
[V:2] z8 | 
[V:3] z2c2c3B | 
[V:4] A,,8- | 
[V:1] A8 | 
[V:2] z8 | 
[V:3] A2G2F2E2 | 
[V:4] A,,8 | 
[V:1] z2B2B3A | 
[V:2] z8 | 
[V:3] G8- | 
[V:4] z2G,2G,3F, | 
[V:1] G2F2E2D2 | 
[V:2] z8 | 
[V:3] G8 | 
[V:4] E,2D,2C,2B,,2 | 
[V:1] C3DE2F2- | 
[V:2] z8 | 
[V:3] A8- | 
[V:4] A,,3B,,C,2D,2- | 
[V:1] F2EDC2D2 | 
[V:2] z8 | 
[V:3] A8 | 
[V:4] D,E,F,4E,D, | 
[V:1] E3DCB,A,2- | 
[V:2] z8 | 
[V:3] z8 | 
[V:4] C,2C2C3B, | 
[V:1] A,2D4^C2 | 
[V:2] z8 | 
[V:3] z8 | 
[V:4] A,2G,2F,2E,2 | 
[V:1] D4z2D2 | 
[V:2] z8 | 
[V:3] d8 | 
[V:4] D,8- | 
[V:1] F3GA4- | 
[V:2] z8 | 
[V:3] d8 | 
[V:4] D,4z2D,2 | 
[V:1] A2GFE4 | 
[V:2] z8 | 
[V:3] c8- | 
[V:4] F,3G,A,4- | 
[V:1] z2A2G2E2 | 
[V:2] z8 | 
[V:3] c8 | 
[V:4] A,2G,F,E,4 | 
[V:1] G6E2 | 
[V:2] z8 | 
[V:3] B8- | 
[V:4] z2E,3F,G,2- | 
[V:1] E4z2B2- | 
[V:2] z8 | 
[V:3] B8- | 
[V:4] G,2E,2E,4 | 
[V:1] Bcd3cBA | 
[V:2] z8 | 
[V:3] B8- | 
[V:4] z4z2E,2- | 
[V:1] G4z2G2- | 
[V:2] z8 | 
[V:3] B8 | 
[V:4] E,F,G,3F,E,D, | 
[V:1] G2ABc2G2 | 
[V:2] z8 | 
[V:3] c8- | 
[V:4] C,8 | 
[V:1] c3BA2G2 | 
[V:2] z8 | 
[V:3] c8- | 
[V:4] z2C,2C,3D,/E,/ | 
[V:1] A2G2A2c2 | 
[V:2] z8 | 
[V:3] c8 | 
[V:4] F,2C,2F,3E, | 
[V:1] B2d3cB2- | 
[V:2] z8 | 
[V:3] d8 | 
[V:4] D,3C,B,,2G,,2 | 
[V:1] B2A4^G2 | 
[V:2] z8 | 
[V:3] c4B4 | 
[V:4] A,,4E,4 | 
[V:1] A8 | 
[V:2] z8 | 
[V:3] A6GF | 
[V:4] A,,8 | 
[V:1] z4A4 | 
[V:2] z8 | 
[V:3] E2F3EF2 | 
[V:4] z8 | 
[V:1] G4E4 | 
[V:2] z8 | 
[V:3] GFED^C2D^C | 
[V:4] z8 | 
[V:1] F2D3EF2 | 
[V:2] z8 | 
[V:3] D4F4 | 
[V:4] z4D,4 | 
[V:1] GFED^C2DC | 
[V:2] z8 | 
[V:3] E8 | 
[V:4] C,4A,,4 | 
[V:1] D8 | 
[V:2] z8 | 
[V:3] D4d4 | 
[V:4] B,,2G,,3A,,B,,2 | 
[V:1] z8 | 
[V:2] z8 | 
[V:3] c4A4 | 
[V:4] C,B,,A,,G,,^F,,2G,,F,, | 
[V:1] z4d4 | 
[V:2] z8 | 
[V:3] B2G3AB2 | 
[V:4] G,,4B,,4 | 
[V:1] c4A4 | 
[V:2] z8 | 
[V:3] cBAG^F2G^F | 
[V:4] A,,8 | 
[V:1] B2G3AB2 | 
[V:2] z8 | 
[V:3] G4B4 | 
[V:4] G,,4G,4 | 
[V:1] cBAG^F2GF | 
[V:2] z8 | 
[V:3] A8 | 
[V:4] F,4D,4 | 
[V:1] G8 | 
[V:2] z8 | 
[V:3] G8 | 
[V:4] E,2C,3D,E,2 | 
[V:1] z8 | 
[V:2] z8 | 
[V:3] D8 | 
[V:4] F,2D,3E,F,2 | 
[V:1] z2E3FG2 | 
[V:2] z8 | 
[V:3] E8 | 
[V:4] G,2C,3D,E,2 | 
[V:1] A2D3EF2 | 
[V:2] z8 | 
[V:3] F8 | 
[V:4] D,2B,,3C,D,2 | 
[V:1] G2C3DE2 | 
[V:2] z8 | 
[V:3] E8 | 
[V:4] C,2A,,3B,,C,2 | 
[V:1] FEDCB,3A, | 
[V:2] z8 | 
[V:3] D8 | 
[V:4] B,,4G,,4 | 
[V:1] C4z4 | 
[V:2] z8 | 
[V:3] C8 | 
[V:4] z2G,3F,E,D, | 
[V:1] E3FG2A2- | 
[V:2] z8 | 
[V:3] z2G4E2 | 
[V:4] C,4z2C,2 | 
[V:1] A2F2G2E2- | 
[V:2] z8 | 
[V:3] F2A2G2C2 | 
[V:4] D,4E,4 | 
[V:1] E2A4F2 | 
[V:2] z8 | 
[V:3] c4d4 | 
[V:4] F,4D,4 | 
[V:1] G2E4A,2- | 
[V:2] z8 | 
[V:3] B4c3d | 
[V:4] E,4A,,4 | 
[V:1] A,2A4G2- | 
[V:2] z8 | 
[V:3] e2f3ed2- | 
[V:4] A,4F,2G,2 | 
[V:1] G2E2F2D2- | 
[V:2] z8 | 
[V:3] d2c2d2f2- | 
[V:4] E,4D,4 | 
[V:1] DEFE/F/G2D2 | 
[V:2] z8 | 
[V:3] f2d2e2f2 | 
[V:4] z2D,2C,2D,2 | 
[V:1] G2F2D2G2- | 
[V:2] z8 | 
[V:3] e2d2f2e2- | 
[V:4] C,2D,4C,2 | 
[V:1] GFEDE4 | 
[V:2] z8 | 
[V:3] e2d4^c2 | 
[V:4] D,4z4 | 
[V:1] D8- | 
[V:2] z8 | 
[V:3] d4z2D2- | 
[V:4] z2D,2B,,2G,,2 | 
[V:1] D8- | 
[V:2] z8 | 
[V:3] DEFE/F/G2D2 | 
[V:4] D,4z2D,2 | 
[V:1] D8 | 
[V:2] z8 | 
[V:3] G2F2D2G2- | 
[V:4] G,,2D,3C,B,,A,, | 
[V:1] D4^C4 | 
[V:2] z8 | 
[V:3] GFEDE4 | 
[V:4] B,,4A,,4 | 
[V:1] D8- | 
[V:2] z8 | 
[V:3] D8- | 
[V:4] z4D,4 | 
[V:1] D8 ||  
[V:2] z8 ||  
[V:3] D8 ||  
[V:4] D,8 ||  
[V:1]  [K:C] [K:clef=treble][M:2/1]z4A4- | 
[V:2]  [K:C] [K:clef=treble-8][M:2/1]z8 | 
[V:3]  [K:C] [K:clef=treble-8][M:2/1]A8- | 
[V:4]  [K:C] [K:clef=bass][M:2/1]D,8 | 
[V:1] A4E4- | 
[V:2] e8- | 
[V:3] A8 | 
[V:4] A,,8 | 
[V:1] E4G4 | 
[V:2] e4B4- | 
[V:3] E8 | 
[V:4] C,4E,4- | 
[V:1] z2G3AB2 | 
[V:2] B4d4 | 
[V:3] G8 | 
[V:4] E,2D,C,B,,4 | 
[V:1] E2c4B2 | 
[V:2] c4z4 | 
[V:3] A4z2B2 | 
[V:4] A,,4z4 | 
[V:1] G2A4G2- | 
[V:2] z8 | 
[V:3] c4B2G2 | 
[V:4] z8 | 
[V:1] G2^F2G4 | 
[V:2] z8 | 
[V:3] A4G3F | 
[V:4] z4C,4 | 
[V:1] z8 | 
[V:2] z4c4 | 
[V:3] D2G4^F2 | 
[V:4] B,,2G,,2A,,4 | 
[V:1] z4d4 | 
[V:2] B2d4cB | 
[V:3] G8 | 
[V:4] G,,8 | 
[V:1] c4B4 | 
[V:2] A2c2d2e2- | 
[V:3] z4G4 | 
[V:4] z8 | 
[V:1] A4z2G2 | 
[V:2] e2d4c2 | 
[V:3] F4E4 | 
[V:4] z8 | 
[V:1] F2D2E2F2 | 
[V:2] d2B2A4 | 
[V:3] D4z4 | 
[V:4] z8 | 
[V:1] G3FEDE2- | 
[V:2] G8 | 
[V:3] z8 | 
[V:4] z4G,4 | 
[V:1] E2D4^C2 | 
[V:2] z4G4 | 
[V:3] z8 | 
[V:4] F,4E,4 | 
[V:1] D4z4 | 
[V:2] A2B2A2d2- | 
[V:3] z4z2F2- | 
[V:4] D,4z2D,2- | 
[V:1] z4z2A2- | 
[V:2] d2c2B2A2 | 
[V:3] FGA2E2F2- | 
[V:4] D,E,F,2G,2D,2 | 
[V:1] ABc2d2A2 | 
[V:2] f2e2d2f2- | 
[V:3] FGA2D4 | 
[V:4] z4z2D,2- | 
[V:1] z4z2A2- | 
[V:2] f2f2d3e | 
[V:3] z4z2D2 | 
[V:4] D,E,F,2G,2D,2- | 
[V:1] ABc2d2G2 | 
[V:2] f4z4 | 
[V:3] A4B4 | 
[V:4] D,C,B,,A,,G,,4 | 
[V:1] c8 | 
[V:2] e6A2 | 
[V:3] A8 | 
[V:4] A,,4z2A,,2- | 
[V:1] z2A3Bc2 | 
[V:2] e4d2e2 | 
[V:3] c4B2A2- | 
[V:4] A,,B,,C,2D,2A,,2 | 
[V:1] d2G2c4 | 
[V:2] d2e2c4 | 
[V:3] A2G4^F2 | 
[V:4] B,,2C,2A,,4 | 
[V:1] B6A2- | 
[V:2] z4f4 | 
[V:3] G4d4 | 
[V:4] G,,4z4 | 
[V:1] A2G4^F2 | 
[V:2] e2d4c2 | 
[V:3] c2B2A4 | 
[V:4] z8 | 
[V:1] G8 | 
[V:2] d4d2e2- | 
[V:3] G8- | 
[V:4] G,,8- | 
[V:1] z4D4 | 
[V:2] edc4B2 | 
[V:3] G8 | 
[V:4] G,,8 | 
[V:1] E3FG2A2 | 
[V:2] c6BA | 
[V:3] z8 | 
[V:4] C,8 | 
[V:1] F4E4 | 
[V:2] B2A2c2B2- | 
[V:3] F4G3A | 
[V:4] D,4C,2G,2- | 
[V:1] z4D4 | 
[V:2] BAG4F2 | 
[V:3] B2c4B2 | 
[V:4] G,F,E,2D,4 | 
[V:1] E3FG2A2 | 
[V:2] G2A2G2c2- | 
[V:3] c4z4 | 
[V:4] C,3D,E,2F,2 | 
[V:1] F4E2G2- | 
[V:2] c2B2c4 | 
[V:3] F4G3A | 
[V:4] D,4C,4 | 
[V:1] G2FED4 | 
[V:2] z8 | 
[V:3] B2c4B2 | 
[V:4] z8 | 
[V:1] z4G4 | 
[V:2] e8- | 
[V:3] c8- | 
[V:4] C,8 | 
[V:1] G2A4A2 | 
[V:2] e8 | 
[V:3] c8 | 
[V:4] C,4A,,4 | 
[V:1] G4G2c2- | 
[V:2] e8 | 
[V:3] z4c4- | 
[V:4] C,8 | 
[V:1] c4B4- | 
[V:2] f4g4 | 
[V:3] c4d4- | 
[V:4] A,,4G,,4 | 
[V:1] B2A4GF | 
[V:2] f6ed | 
[V:3] d2cBA2B2 | 
[V:4] D,8 | 
[V:1] E2G4F2 | 
[V:2] e2dcB2A2 | 
[V:3] c4z4 | 
[V:4] C,4D,4 | 
[V:1] E2G4F2 | 
[V:2] c2B2d4 | 
[V:3] z2G2A3B | 
[V:4] C,2E,2D,4 | 
[V:1] E2G3FE2- | 
[V:2] G8 | 
[V:3] c3BA2G2 | 
[V:4] C,8 | 
[V:1] E2D4^C2 | 
[V:2] z8 | 
[V:3] F2D2E4 | 
[V:4] D,4A,,4 | 
[V:1] D8 | 
[V:2] z2A3F_B2- | 
[V:3] D8- | 
[V:4] z8 | 
[V:1] z8 | 
[V:2] B2A4f2- | 
[V:3] D8 | 
[V:4] z4z2D,2- | 
[V:1] z2F3EA2- | 
[V:2] fed2c2f2- | 
[V:3] A8- | 
[V:4] D,C,F,4F,2- | 
[V:1] A2G4^F2 | 
[V:2] f2e2d4 | 
[V:3] A8 | 
[V:4] F,E,D,C,D,4 | 
[V:1] G8 | 
[V:2] z4z2d2- | 
[V:3] G8- | 
[V:4] G,,8 | 
[V:1] z8 | 
[V:2] dBe3dg2 | 
[V:3] G8 | 
[V:4] z2C,3B,,E,2- | 
[V:1] z2F3EA2- | 
[V:2] c2d2e4 | 
[V:3] A8- | 
[V:4] E,2D,4C,2 | 
[V:1] A2G4^F2 | 
[V:2] d8 | 
[V:3] A8 | 
[V:4] D,8 | 
[V:1] G8 | 
[V:2] z4d4- | 
[V:3] B8- | 
[V:4] G,,8- | 
[V:1] z4z2G2- | 
[V:2] d4d4 | 
[V:3] B8 | 
[V:4] G,,8 | 
[V:1] G2G6 | 
[V:2] e8 | 
[V:3] c8- | 
[V:4] C,8 | 
[V:1] A4c4 | 
[V:2] c4A4 | 
[V:3] c8 | 
[V:4] A,,8 | 
[V:1] B2A4G2- | 
[V:2] B2d3GB2 | 
[V:3] d8- | 
[V:4] G,,2F,,2G,,4 | 
[V:1] G2F2G2_B2- | 
[V:2] A4G4 | 
[V:3] d8 | 
[V:4] D,4G,,4 | 
[V:1] B2A4G2 | 
[V:2] z4d4- | 
[V:3] c4_B4 | 
[V:4] z4G,,4 | 
[V:1] A8 | 
[V:2] d4e2f2- | 
[V:3] A8- | 
[V:4] D,4C,2D,2- | 
[V:1] z8 | 
[V:2] fedcd4 | 
[V:3] A4G4 | 
[V:4] D,C,A,,2B,,4 | 
[V:1] (3:2:4A4G2F2E4 | 
[V:2] c8 | 
[V:3] A4z4 | 
[V:4] A,,8 | 
[V:1] z8 | 
[V:2] z8 | 
[V:3] A8 | 
[V:4] (3:2:4D,4C,2B,,2A,,4 | 
[V:1] z8 | 
[V:2] (3:2:4e4d2c2B4 | 
[V:3] G8 | 
[V:4] z8 | 
[V:1] (3:2:4A4G2F2E4 | 
[V:2] (3:2:5A3Bc2d4c2 | 
[V:3] A8 | 
[V:4] z8 | 
[V:1] (3:2:4D4z2z2D4 | 
[V:2] d8 | 
[V:3] B8 | 
[V:4] (3:2:4G,4F,2E,2D,4 | 
[V:1] (3E6D2C4 | 
[V:2] z8 | 
[V:3] c8 | 
[V:4] (3C,6B,,2A,,4 | 
[V:1] B,8 | 
[V:2] G4G2G2- | 
[V:3] d8- | 
[V:4] G,,4z2G,,2- | 
[V:1] z2B4B2 | 
[V:2] G2FED2G2 | 
[V:3] d8 | 
[V:4] G,,2G,,4B,,2 | 
[V:1] c4d4 | 
[V:2] z2E2F2G2 | 
[V:3] c4B4 | 
[V:4] A,,2A,,4G,,2 | 
[V:1] c4A2B2- | 
[V:2] E2e2f2g2 | 
[V:3] A4c2d2- | 
[V:4] A,,4A,,2G,,2- | 
[V:1] B2A4^G2 | 
[V:2] e8- | 
[V:3] dcA2B4 | 
[V:4] G,,2A,,2E,4 | 
[V:1] A4z2E2 | 
[V:2] e4z2c2 | 
[V:3] A8- | 
[V:4] A,,4z2A,,2 | 
[V:1] F4E4 | 
[V:2] d4c4- | 
[V:3] A8 | 
[V:4] D,4A,,4 | 
[V:1] z2E3FG2 | 
[V:2] c2A2B4 | 
[V:3] A4G4 | 
[V:4] z4z2G,,2 | 
[V:1] C2D2E2F2 | 
[V:2] A8 | 
[V:3] F4E2A2 | 
[V:4] A,,2B,,2C,2D,2 | 
[V:1] G2C2D2E2 | 
[V:2] z4z2A2- | 
[V:3] G2F4E2 | 
[V:4] G,,2A,,2B,,2C,2 | 
[V:1] F2G2C2D2 | 
[V:2] A2B2c2B2 | 
[V:3] A2G2F4 | 
[V:4] D,2G,,2A,,2B,,2 | 
[V:1] E2F2G2E2- | 
[V:2] G2d4c2 | 
[V:3] E2A2B2A2- | 
[V:4] C,2D,2G,,2A,,2 | 
[V:1] E2D3^CC2 | 
[V:2] d2G2A4 | 
[V:3] AGFDE4 | 
[V:4] B,,4A,,4 | 
[V:1] D8 |]  
[V:2] A8 |]  
[V:3] D8 |]  
[V:4] D,8 |]  



